X:305
T:the Peruvian Boy
A:Wyresdale, Lancashire
B:H.S.J. Jackson, 1823
L:1/8
M:2/4
O:England
Z:Richard Robinson 
%%TranscriptionNotes:(dance notes not transcribed, incompletely legible)
%%TUNEURL: http://www.leeds.ac.uk/music/Info/RRTuneBk/gettune/00000e1b.html
%%ID:00000e1b
K:F
A/B/  | \
c>dcA | Bdfd  | cA B/A/G/F/ | EG GA/B/ | \
c>dcA | Bdef  | egcb  | aff ::
f/g/ |\
afaf | b>c'ba | g>ag>f | ecc2 | \
dBfd | cAeA   | BdcB   | AFF ::
%page:38
